Simply white circles/scalable/mimes/text-x-lua.svg

<?xml version="1.0" encoding="UTF-8" standalone="no"?>
<!-- Created with Inkscape (http://www.inkscape.org/) -->

<svg
   xmlns:dc="http://purl.org/dc/elements/1.1/"
   xmlns:cc="http://creativecommons.org/ns#"
   xmlns:rdf="http://www.w3.org/1999/02/22-rdf-syntax-ns#"
   xmlns:svg="http://www.w3.org/2000/svg"
   xmlns="http://www.w3.org/2000/svg"
   xmlns:xlink="http://www.w3.org/1999/xlink"
   xmlns:sodipodi="http://sodipodi.sourceforge.net/DTD/sodipodi-0.dtd"
   xmlns:inkscape="http://www.inkscape.org/namespaces/inkscape"
   version="1.1"
   width="48"
   height="48"
   id="svg21744"
   sodipodi:docname="text-x-lua.svg"
   inkscape:version="0.92.3 (2405546, 2018-03-11)">
  <sodipodi:namedview
     pagecolor="#ffffff"
     bordercolor="#666666"
     borderopacity="1"
     objecttolerance="10"
     gridtolerance="10"
     guidetolerance="10"
     inkscape:pageopacity="0"
     inkscape:pageshadow="2"
     inkscape:window-width="1366"
     inkscape:window-height="719"
     id="namedview44"
     showgrid="false"
     inkscape:zoom="5.15625"
     inkscape:cx="-46.295585"
     inkscape:cy="23.224242"
     inkscape:window-x="0"
     inkscape:window-y="25"
     inkscape:window-maximized="1"
     inkscape:current-layer="svg21744"
     inkscape:snap-global="false" />
  <defs
     id="defs21746">
    <linearGradient
       x1="525.4375"
       y1="836.1875"
       x2="516.65625"
       y2="828.5"
       id="linearGradient14113"
       xlink:href="#linearGradient14494-2-7"
       gradientUnits="userSpaceOnUse"
       gradientTransform="translate(-125.5,-1702.64)" />
    <linearGradient
       id="linearGradient14494-2-7">
      <stop
         id="stop14496-9-3"
         style="stop-color:#dc85e9;stop-opacity:1"
         offset="0" />
      <stop
         id="stop14498-9-7"
         style="stop-color:#f2cbf8;stop-opacity:1"
         offset="1" />
    </linearGradient>
    <linearGradient
       x1="520.58502"
       y1="735.05206"
       x2="516.15179"
       y2="720.86298"
       id="linearGradient14115"
       xlink:href="#linearGradient14494-5"
       gradientUnits="userSpaceOnUse" />
    <linearGradient
       id="linearGradient14494-5">
      <stop
         id="stop14496-5"
         style="stop-color:#dc85e9;stop-opacity:1"
         offset="0" />
      <stop
         id="stop14498-1"
         style="stop-color:#f2cbf8;stop-opacity:1"
         offset="1" />
    </linearGradient>
    <linearGradient
       x1="525.4375"
       y1="836.1875"
       x2="516.65625"
       y2="828.5"
       id="linearGradient54948"
       xlink:href="#linearGradient14494-2-7"
       gradientUnits="userSpaceOnUse"
       gradientTransform="translate(-462.50049,-802.00385)" />
    <linearGradient
       x1="520.58502"
       y1="735.05206"
       x2="516.15179"
       y2="720.86298"
       id="linearGradient14109"
       xlink:href="#linearGradient14494-5"
       gradientUnits="userSpaceOnUse"
       gradientTransform="matrix(0.512535,0,0,0.615385,-202.35949,-422.92385)" />
    <linearGradient
       x1="525.4375"
       y1="836.1875"
       x2="516.65625"
       y2="828.5"
       id="linearGradient54952"
       xlink:href="#linearGradient14494-2-7"
       gradientUnits="userSpaceOnUse"
       gradientTransform="translate(-462.50049,-797.50385)" />
    <linearGradient
       x1="209.0625"
       y1="-765.46082"
       x2="209.0625"
       y2="-781.62268"
       id="linearGradient44039"
       xlink:href="#linearGradient15606-1"
       gradientUnits="userSpaceOnUse"
       gradientTransform="matrix(1.5,0,0,1.5,-364.99949,1176.9562)" />
    <linearGradient
       id="linearGradient15606-1">
      <stop
         id="stop15608-0"
         style="stop-color:#ffffff;stop-opacity:0.58823502"
         offset="0" />
      <stop
         id="stop15610-5"
         style="stop-color:#ffffff;stop-opacity:0.86274499"
         offset="1" />
    </linearGradient>
    <linearGradient
       x1="294.3429"
       y1="256.58133"
       x2="294.41818"
       y2="243.13852"
       id="linearGradient44042"
       xlink:href="#linearGradient10286-3"
       gradientUnits="userSpaceOnUse"
       gradientTransform="matrix(2.99213,0,0,3.00466,-830.71149,-727.44385)" />
    <linearGradient
       id="linearGradient10286-3">
      <stop
         id="stop10288-8"
         style="stop-color:#b3b3b3;stop-opacity:1"
         offset="0" />
      <stop
         id="stop10290-7"
         style="stop-color:#e6e6e6;stop-opacity:1"
         offset="1" />
    </linearGradient>
    <linearGradient
       x1="110.96875"
       y1="976.29968"
       x2="110.96875"
       y2="992.375"
       id="linearGradient43236"
       xlink:href="#linearGradient4145-42"
       gradientUnits="userSpaceOnUse" />
    <linearGradient
       id="linearGradient4145-42">
      <stop
         id="stop4953"
         style="stop-color:#e694bb;stop-opacity:1"
         offset="0" />
      <stop
         id="stop4955"
         style="stop-color:#d3819a;stop-opacity:1"
         offset="0.26238" />
      <stop
         id="stop4957"
         style="stop-color:#b25a64;stop-opacity:1"
         offset="0.704952" />
      <stop
         id="stop4959"
         style="stop-color:#98313d;stop-opacity:1"
         offset="1" />
    </linearGradient>
    <linearGradient
       x1="110.96875"
       y1="976.29968"
       x2="110.99982"
       y2="991.87488"
       id="linearGradient14097-7"
       xlink:href="#linearGradient4145-42"
       gradientUnits="userSpaceOnUse"
       gradientTransform="matrix(1,0,0,1.00011,0,-0.10551)" />
    <linearGradient
       x1="110.96875"
       y1="976.29968"
       x2="110.96875"
       y2="992.375"
       id="linearGradient21742"
       xlink:href="#linearGradient4145-42"
       gradientUnits="userSpaceOnUse"
       gradientTransform="matrix(1.00399,0,0,1.00959,-1.1658,-9.36636)" />
    <clipPath
       clipPathUnits="userSpaceOnUse"
       id="clipPath867">
      <g
         inkscape:label="Clip"
         id="use869">
        <path
           d="m 47.000614,3.0210706 v 0.75 40.5000404 0.72723 h 0.75 32.499399 0.75 v -0.72723 -25.50003 -0.3282 l -0.2344,-0.2343 -14.9059,-15.0000104 -0.1875,-0.1875 h -0.3282 -17.593399 z"
           id="path875"
           style="color:#000000;font-style:normal;font-variant:normal;font-weight:normal;font-stretch:normal;font-size:medium;line-height:normal;font-family:'Andale Mono';text-indent:0pt;text-align:start;text-decoration:none;text-decoration-line:none;letter-spacing:normal;word-spacing:normal;text-transform:none;direction:ltr;text-anchor:start;display:inline;overflow:visible;visibility:visible;fill:#000000;fill-opacity:1;fill-rule:nonzero;stroke:none;stroke-width:1;marker:none"
           inkscape:connector-curvature="0" />
      </g>
    </clipPath>
  </defs>
  <metadata
     id="metadata21749">
    <rdf:RDF>
      <cc:Work
         rdf:about="">
        <dc:format>image/svg+xml</dc:format>
        <dc:type
           rdf:resource="http://purl.org/dc/dcmitype/StillImage" />
        <dc:title></dc:title>
      </cc:Work>
    </rdf:RDF>
  </metadata>
  <path
     style="color:#000000;font-style:normal;font-variant:normal;font-weight:normal;font-stretch:normal;font-size:medium;line-height:normal;font-family:'Andale Mono';text-indent:0pt;text-align:start;text-decoration:none;text-decoration-line:none;letter-spacing:normal;word-spacing:normal;text-transform:none;direction:ltr;text-anchor:start;display:inline;overflow:visible;visibility:visible;fill:#e6e6e6;fill-opacity:1;stroke:none;stroke-width:5.99873972;marker:none"
     d="M 29.705078 -0.083984375 C 27.658234 -0.075805254 25.583576 0.00449542 25.1875 0.013671875 L 7 0.013671875 C 6.813106 -0.004321175 6.624454 -0.004321175 6.4375 0.013671875 C 5.062346 0.27607036 3.975341 1.61231 4 3.0117188 L 4 45 C 4.00015 46.570313 5.429312 47.99985 7 48 L 41 48 C 42.570687 47.99985 43.99985 46.570313 44 45 L 44 18.818359 C 44.018 18.026395 44.215294 8.8914456 43.664062 8.3222656 L 34.054688 0.24804688 C 33.770027 -0.02742658 31.751922 -0.092163496 29.705078 -0.083984375 z M 31.195312 3.0097656 L 31.328125 10.513672 C 31.340155 11.195372 31.966379 11.80479 32.644531 11.792969 L 40.416016 11.65625 C 40.548988 11.674363 40.684161 11.672765 40.816406 11.650391 L 40.898438 14.679688 L 41 18.771484 L 41 44.271484 L 41 44.998047 L 40.25 44.998047 L 7.75 44.998047 L 7 44.998047 L 7 44.271484 L 7 3.7714844 L 7 3.0214844 L 7.75 3.0214844 L 25.34375 3.0214844 L 25.671875 3.0214844 L 31.195312 3.0097656 z M 10.242188 6.9082031 L 10.242188 8.9453125 L 16.449219 8.9453125 L 16.449219 6.9082031 L 10.242188 6.9082031 z M 18.242188 6.9082031 L 18.242188 8.9453125 L 24.449219 8.9453125 L 24.449219 6.9082031 L 18.242188 6.9082031 z M 12.242188 10.908203 L 12.242188 12.945312 L 28.339844 12.945312 L 28.339844 10.908203 L 12.242188 10.908203 z M 10.242188 14.908203 L 10.242188 16.945312 L 24.109375 16.945312 L 24.109375 14.908203 L 10.242188 14.908203 z M 26.242188 14.908203 L 26.242188 16.945312 L 36.521484 16.945312 L 36.521484 14.908203 L 26.242188 14.908203 z M 10.242188 18.908203 L 10.242188 20.945312 L 16.642578 20.945312 L 16.642578 18.908203 L 10.242188 18.908203 z M 18.242188 18.908203 L 18.242188 20.945312 L 30.072266 20.945312 L 30.072266 18.908203 L 18.242188 18.908203 z M 32.242188 18.908203 L 32.242188 20.945312 L 36.412109 20.945312 L 36.412109 18.908203 L 32.242188 18.908203 z M 12.242188 22.908203 L 12.242188 24.945312 L 33.962891 24.945312 L 33.962891 22.908203 L 12.242188 22.908203 z M 12.242188 26.908203 L 12.242188 28.847656 L 29.599609 28.847656 L 29.599609 26.908203 L 12.242188 26.908203 z M 32.242188 26.908203 L 32.242188 28.847656 L 36.21875 28.847656 L 36.21875 26.908203 L 32.242188 26.908203 z M 10.023438 30.908203 L 10.023438 32.847656 L 26.21875 32.847656 L 26.21875 30.908203 L 10.023438 30.908203 z M 29.625 30.908203 L 29.625 32.847656 L 36.21875 32.847656 L 36.21875 30.908203 L 29.625 30.908203 z M 16.689453 35.195312 L 16.689453 42.792969 L 18.4375 42.792969 L 18.4375 35.195312 L 16.689453 35.195312 z M 29.15625 37.197266 C 28.538887 37.229576 27.921019 37.338508 27.324219 37.470703 L 27.324219 38.802734 C 28.012819 38.428754 28.816907 38.314707 29.591797 38.367188 C 30.115727 38.346457 30.725824 38.694827 30.615234 39.291016 C 29.778034 39.304016 28.924195 39.229835 28.109375 39.466797 C 27.386295 39.623197 26.831509 40.286243 26.849609 41.033203 C 26.747409 41.935893 27.449099 42.803874 28.349609 42.902344 C 29.203209 43.054124 30.147574 42.742622 30.615234 41.982422 L 30.615234 42.792969 L 32.378906 42.792969 L 32.378906 39.671875 C 32.378896 39.540875 32.374511 39.409837 32.363281 39.279297 C 32.336581 38.442997 31.839941 37.590183 30.988281 37.376953 C 30.390431 37.208448 29.773612 37.164959 29.15625 37.197266 z M 20.068359 37.324219 L 20.068359 40.664062 C 20.050459 41.488662 20.320695 42.469073 21.171875 42.789062 C 22.109075 43.165312 23.228449 42.812372 23.818359 42.001953 L 23.818359 42.792969 L 25.566406 42.792969 L 25.566406 37.324219 L 23.818359 37.324219 L 23.818359 38.904297 C 23.777489 39.669697 23.967979 40.518386 23.505859 41.191406 C 23.134659 41.796006 21.966514 41.7653 21.871094 40.96875 C 21.758104 39.75825 21.850632 38.538819 21.826172 37.324219 L 20.068359 37.324219 z M 29.707031 40.332031 L 30.441406 40.332031 C 30.882706 40.344231 30.493536 41.220532 30.279297 41.419922 C 29.877197 41.883892 28.880975 41.951459 28.640625 41.292969 C 28.413325 40.642799 29.150071 40.246631 29.707031 40.332031 z "
     id="path14075" />
</svg>

<svg xmlns="http://www.w3.org/2000/svg" width="48" height="48"><defs><linearGradient id="a"><stop offset="0" stop-color="#dc85e9"/><stop offset="1" stop-color="#f2cbf8"/></linearGradient><linearGradient id="b"><stop offset="0" stop-color="#dc85e9"/><stop offset="1" stop-color="#f2cbf8"/></linearGradient><linearGradient id="c"><stop offset="0" stop-color="#fff" stop-opacity=".588"/><stop offset="1" stop-color="#fff" stop-opacity=".863"/></linearGradient><linearGradient id="d"><stop offset="0" stop-color="#b3b3b3"/><stop offset="1" stop-color="#e6e6e6"/></linearGradient><linearGradient id="e"><stop offset="0" stop-color="#e694bb"/><stop offset=".262" stop-color="#d3819a"/><stop offset=".705" stop-color="#b25a64"/><stop offset="1" stop-color="#98313d"/></linearGradient></defs><path style="line-height:normal;text-indent:0;text-align:start;text-decoration-line:none;text-transform:none;marker:none" d="M29.705-.084c-2.047.008-4.121.088-4.517.098H7a2.938 2.938 0 0 0-.563 0C5.063.276 3.975 1.612 4 3.012V45c0 1.57 1.43 3 3 3h34c1.57 0 3-1.43 3-3V18.818c.018-.792.215-9.927-.336-10.496L34.054.248c-.284-.275-2.302-.34-4.349-.332zm1.49 3.094l.133 7.504c.012.681.638 1.29 1.317 1.279l7.771-.137c.133.018.268.017.4-.006l.082 3.03L41 18.77v26.227H7V3.021h18.672l5.523-.011zM10.242 6.908v2.037h6.207V6.908h-6.207zm8 0v2.037h6.207V6.908h-6.207zm-6 4v2.037H28.34v-2.037H12.242zm-2 4v2.037H24.11v-2.037H10.242zm16 0v2.037h10.28v-2.037h-10.28zm-16 4v2.037h6.4v-2.037h-6.4zm8 0v2.037h11.83v-2.037h-11.83zm14 0v2.037h4.17v-2.037h-4.17zm-20 4v2.037h21.72v-2.037h-21.72zm0 4v1.94H29.6v-1.94H12.242zm20 0v1.94h3.977v-1.94h-3.977zm-22.219 4v1.94H26.22v-1.94H10.023zm19.602 0v1.94h6.594v-1.94h-6.594zm-12.936 4.287v7.598h1.748v-7.598H16.69zm12.467 2.002a11.25 11.25 0 0 0-1.832.274v1.332c.689-.374 1.493-.488 2.268-.436.524-.02 1.134.328 1.023.924-.837.013-1.69-.061-2.506.176-.723.156-1.277.82-1.26 1.566-.102.903.6 1.77 1.5 1.87.854.151 1.799-.16 2.266-.92v.81h1.764v-3.121c0-.131-.004-.262-.016-.393-.026-.836-.523-1.689-1.375-1.902a5.636 5.636 0 0 0-1.832-.18zm-9.088.127v3.34c-.018.825.253 1.805 1.104 2.125.937.376 2.056.023 2.646-.787v.791h1.748v-5.469h-1.748v1.58c-.04.766.15 1.614-.312 2.287-.371.605-1.54.574-1.635-.222-.113-1.21-.02-2.43-.045-3.645h-1.758zm9.639 3.008h.734c.442.012.053.889-.162 1.088-.402.464-1.398.531-1.638-.127-.228-.65.51-1.046 1.066-.961z" color="#000" font-weight="400" font-family="Andale Mono" overflow="visible" fill="#e6e6e6"/></svg>
